X:5
T:No.49 Con Cassidy's Barndance
C:barndance
M:4/4
L:1/8
K:D
ed||cAeA ceAc|BEE2GABd|cAeA ceAg|
fdfa gfed:|ceef gfgd|BGBc dfed|
cdef gfge|(3fga fd gfed|ceef gfge|
dBGB dgfg|agfa gfee|ebaf gfed||
